swiss/communes/0960.svg

<?xml version="1.0" encoding="UTF-8" standalone="no"?>
<svg
   xmlns:dc="http://purl.org/dc/elements/1.1/"
   xmlns:cc="http://web.resource.org/cc/"
   xmlns:rdf="http://www.w3.org/1999/02/22-rdf-syntax-ns#"
   xmlns:svg="http://www.w3.org/2000/svg"
   xmlns="http://www.w3.org/2000/svg"
   xmlns:xlink="http://www.w3.org/1999/xlink"
   xmlns:sodipodi="http://sodipodi.sourceforge.net/DTD/sodipodi-0.dtd"
   xmlns:inkscape="http://www.inkscape.org/namespaces/inkscape"
   height="763"
   width="603"
   version="1.0"
   id="svg20"
   sodipodi:version="0.32"
   inkscape:version="0.44.1"
   sodipodi:docname="Wyssachen-coat of arms.svg"
   sodipodi:docbase="F:\Mis Documentos\Mis imágenes\Encyclopédie\Escudos de Suiza">
  <metadata
     id="metadata31">
    <rdf:RDF>
      <cc:Work
         rdf:about="">
        <dc:format>image/svg+xml</dc:format>
        <dc:type
           rdf:resource="http://purl.org/dc/dcmitype/StillImage" />
        <dc:date>07-AUG-2006</dc:date>
        <dc:creator>
          <cc:Agent>
            <dc:title>Jérôme BLUM (wagner51)</dc:title>
          </cc:Agent>
        </dc:creator>
        <cc:license
           rdf:resource="http://creativecommons.org/licenses/GPL/2.0/" />
        <dc:coverage />
        <dc:description>Gabarit pour le Projet:Blasons de WIkipédia</dc:description>
        <dc:subject>
          <rdf:Bag>
            <rdf:li>blason suisse modèle gabarit projet blasons</rdf:li>
          </rdf:Bag>
        </dc:subject>
        <dc:language>fr</dc:language>
        <dc:title>Gabrit d'un blason suisse</dc:title>
      </cc:Work>
      <cc:License
         rdf:about="http://creativecommons.org/licenses/GPL/2.0/">
        <cc:permits
           rdf:resource="http://web.resource.org/cc/Reproduction" />
        <cc:permits
           rdf:resource="http://web.resource.org/cc/Distribution" />
        <cc:requires
           rdf:resource="http://web.resource.org/cc/Notice" />
        <cc:permits
           rdf:resource="http://web.resource.org/cc/DerivativeWorks" />
        <cc:requires
           rdf:resource="http://web.resource.org/cc/ShareAlike" />
        <cc:requires
           rdf:resource="http://web.resource.org/cc/SourceCode" />
      </cc:License>
    </rdf:RDF>
  </metadata>
  <defs
     id="defs29">
    <linearGradient
       id="linearGradient2893">
      <stop
         style="stop-color:#ffffff;stop-opacity:0.3137255;"
         offset="0"
         id="stop2895" />
      <stop
         id="stop2897"
         offset="0.19"
         style="stop-color:#ffffff;stop-opacity:0.25098041;" />
      <stop
         style="stop-color:#6b6b6b;stop-opacity:0.1254902;"
         offset="0.60000002"
         id="stop2901" />
      <stop
         style="stop-color:#000000;stop-opacity:0.1254902;"
         offset="1"
         id="stop2899" />
    </linearGradient>
    <linearGradient
       id="linearGradient2955">
      <stop
         style="stop-color:white;stop-opacity:0;"
         offset="0"
         id="stop2965" />
      <stop
         style="stop-color:black;stop-opacity:0.64583331;"
         offset="1"
         id="stop2959" />
    </linearGradient>
    <radialGradient
       inkscape:collect="always"
       xlink:href="#linearGradient2893"
       id="radialGradient3236"
       gradientUnits="userSpaceOnUse"
       gradientTransform="matrix(1.215027,1.531577e-24,1.464684e-23,1.266667,-839.1924,-490.4894)"
       cx="858.04236"
       cy="579.93323"
       fx="858.04236"
       fy="579.93323"
       r="300" />
  </defs>
  <sodipodi:namedview
     inkscape:window-height="682"
     inkscape:window-width="1024"
     inkscape:pageshadow="2"
     inkscape:pageopacity="0.0"
     guidetolerance="10.0"
     gridtolerance="10.0"
     objecttolerance="10.0"
     borderopacity="1.0"
     bordercolor="#666666"
     pagecolor="#ffffff"
     id="base"
     inkscape:zoom="0.48301887"
     inkscape:cx="502.02345"
     inkscape:cy="437.61715"
     inkscape:window-x="-4"
     inkscape:window-y="-4"
     inkscape:current-layer="layer2"
     showgrid="true"
     showguides="true"
     inkscape:guide-bbox="true">
    <sodipodi:guide
       orientation="vertical"
       position="300"
       id="guide43229" />
  </sodipodi:namedview>
  <desc
     id="desc22">Coat of Arms of Canton of Freiburg (Fribourg)</desc>
  <g
     inkscape:groupmode="layer"
     id="layer1"
     inkscape:label="Fond écu"
     sodipodi:insensitive="true">
    <path
       id="path1899"
       d="M 1.5,1.49998 L 1.5,460.3679 C 1.5,626.6785 135.81456,761.5 301.49999,761.5 C 467.18543,761.5 601.5,626.6785 601.5,460.3679 L 601.5,1.49998 L 1.5,1.49998 z "
       style="fill:#e20909;fill-opacity:1" />
  </g>
  <g
     inkscape:groupmode="layer"
     id="layer2"
     inkscape:label="Meubles"
     sodipodi:insensitive="true">
    <path
       style="fill:white;fill-opacity:1;fill-rule:evenodd;stroke:black;stroke-width:3;stroke-linecap:butt;stroke-linejoin:miter;stroke-miterlimit:4;stroke-dasharray:none;stroke-opacity:1"
       d="M 2,1.5 L 2,206.5 C 37.553438,233.45791 87.36868,218.09398 101.84375,306.34375 C 108.98762,349.89757 145.8854,365.98434 181.6875,386.21875 C 213.15663,404.00426 273.07578,403.14948 241.59375,480.5625 C 227.63663,514.8825 232.61684,538.84244 241.59375,565.90625 C 249.78633,590.60531 265.75433,612.58063 241.59375,648.1875 C 229.70599,665.70719 217.77249,694.6718 231.28125,725.65625 C 236.7389,738.17422 242.9347,748.5792 249.625,757 C 266.47904,759.94969 283.80492,761.5 301.5,761.5 C 317.06667,761.5 332.35379,760.29449 347.28125,758 C 353.54619,749.93336 359.05383,740.14656 363.46875,728.75 C 378.29577,690.47586 372.7248,669.31395 361.40625,645.4375 C 344.84339,610.49817 351.84552,589.59583 362.4375,571.78125 C 384.64503,534.43044 373.48482,500.8555 361.40625,466.09375 C 347.05108,424.77994 378.16548,387.25628 441.28125,366.25 C 481.59466,352.83281 501.79669,327.02663 509.78125,291.53125 C 524.81868,224.68216 568.2676,230.20377 601,206.5 L 600.65625,2.71875 C 569.89738,13.528704 565.52282,39.842902 561.0625,66.75 C 555.39236,100.95528 546.75517,132.59553 505.3125,135.25 C 453.80442,138.54918 436.56317,171.59776 429.90625,204.4375 C 416.38129,271.15877 386.48963,271.59922 355.1875,289.46875 C 309.82762,315.36345 311.99867,326.88521 301.5,346.28125 C 291.74158,328.12512 280.74207,299.57548 241.59375,286.375 C 184.72027,267.1978 191.69405,261.51838 179.3125,220.96875 C 154.34144,139.18842 132.65589,156.41557 104.9375,141.125 C 27.180321,98.231063 54.309423,77.011317 41.9375,46.78125 C 22.392232,-0.97654666 15.244518,12.132856 3.25,1.5 L 2,1.5 z "
       id="path40567"
       sodipodi:nodetypes="ccsssssscscssssssccsssscsssscc" />
    <path
       sodipodi:type="star"
       style="fill:#fcef3c;fill-opacity:1;fill-rule:evenodd;stroke:black;stroke-width:3.37116528;stroke-linecap:round;stroke-linejoin:round;stroke-miterlimit:4;stroke-dasharray:none;stroke-opacity:1"
       id="path42342"
       sodipodi:sides="6"
       sodipodi:cx="173.90625"
       sodipodi:cy="98.429688"
       sodipodi:r1="152.31929"
       sodipodi:r2="76.159645"
       sodipodi:arg1="0.5427505"
       sodipodi:arg2="1.0663493"
       inkscape:flatsided="false"
       inkscape:rounded="0"
       inkscape:randomized="0"
       d="M 304.33593,177.10156 L 210.71599,165.10303 L 170.98925,250.72104 L 134.57031,163.64453 L 40.559567,172.04917 L 97.760572,96.971186 L 43.476566,19.757814 L 137.09651,31.756345 L 176.82325,-53.861669 L 213.24219,33.214846 L 307.25293,24.810204 L 250.05193,99.888189 L 304.33593,177.10156 z "
       transform="matrix(0.889775,-1.489939e-2,1.489939e-2,0.889775,143.7961,66.23362)" />
  </g>
  <g
     inkscape:groupmode="layer"
     id="layer3"
     inkscape:label="Reflet final"
     style="display:inline"
     sodipodi:insensitive="true">
    <path
       style="fill:url(#radialGradient3236);fill-opacity:1"
       d="M 1.5,1.5 L 1.5,460.3679 C 1.5,626.67854 135.81454,761.5 301.49993,761.5 C 467.1854,761.5 601.5,626.67854 601.5,460.3679 L 601.5,1.5 L 1.5,1.5 z "
       id="path2346" />
  </g>
  <g
     inkscape:groupmode="layer"
     id="layer4"
     inkscape:label="Contour final"
     style="display:inline"
     sodipodi:insensitive="true">
    <path
       style="fill:none;fill-opacity:1;stroke:black;stroke-width:3;stroke-miterlimit:4;stroke-dasharray:none;stroke-opacity:1"
       d="M 1.5,1.5 L 1.5,460.36794 C 1.5,626.67854 135.81454,761.5 301.49993,761.5 C 467.1854,761.5 601.5,626.67854 601.5,460.36794 L 601.5,1.5 L 1.5,1.5 z "
       id="path3239" />
  </g>
</svg>

<svg xmlns="http://www.w3.org/2000/svg" xmlns:xlink="http://www.w3.org/1999/xlink" height="763" width="603" version="1.0"><defs><radialGradient xlink:href="#a" id="b" gradientUnits="userSpaceOnUse" gradientTransform="matrix(1.21503 0 0 1.26667 -839.192 -490.49)" cx="858.042" cy="579.933" fx="858.042" fy="579.933" r="300"/><linearGradient id="a"><stop style="stop-color:#fff;stop-opacity:.3137255" offset="0"/><stop offset=".19" style="stop-color:#fff;stop-opacity:.25098041"/><stop style="stop-color:#6b6b6b;stop-opacity:.1254902" offset=".6"/><stop style="stop-color:#000;stop-opacity:.1254902" offset="1"/></linearGradient></defs><path d="M1.5 1.5v458.868c0 166.31 134.315 301.132 300 301.132s300-134.822 300-301.132V1.5H1.5z" style="fill:#e20909;fill-opacity:1"/><path style="fill:#fff;fill-opacity:1;fill-rule:evenodd;stroke:#000;stroke-width:3;stroke-linecap:butt;stroke-linejoin:miter;stroke-miterlimit:4;stroke-dasharray:none;stroke-opacity:1" d="M2 1.5v205c35.553 26.958 85.369 11.594 99.844 99.844 7.144 43.554 44.041 59.64 79.844 79.875 31.469 17.785 91.388 16.93 59.906 94.344-13.957 34.32-8.977 58.28 0 85.343 8.192 24.7 24.16 46.675 0 82.282-11.888 17.52-23.822 46.484-10.313 77.468 5.458 12.518 11.654 22.923 18.344 31.344 16.854 2.95 34.18 4.5 51.875 4.5 15.567 0 30.854-1.206 45.781-3.5 6.265-8.067 11.773-17.853 16.188-29.25 14.827-38.274 9.256-59.436-2.063-83.313-16.563-34.939-9.56-55.841 1.031-73.656 22.208-37.35 11.048-70.925-1.03-105.687-14.356-41.314 16.758-78.838 79.874-99.844 40.314-13.417 60.516-39.223 68.5-74.719C524.82 224.682 568.268 230.204 601 206.5l-.344-203.781c-30.759 10.81-35.133 37.124-39.593 64.031-5.67 34.205-14.308 65.846-55.75 68.5-51.509 3.3-68.75 36.348-75.407 69.188-13.525 66.72-43.416 67.161-74.719 85.03-45.36 25.895-43.188 37.417-53.687 56.813-9.758-18.156-20.758-46.706-59.906-59.906-56.874-19.177-49.9-24.857-62.281-65.406-24.972-81.78-46.657-64.553-74.375-79.844-77.758-42.894-50.629-64.114-63-94.344C22.392-.977 15.244 12.133 3.25 1.5H2z"/><path style="fill:#fcef3c;fill-opacity:1;fill-rule:evenodd;stroke:#000;stroke-width:3.37116528;stroke-linecap:round;stroke-linejoin:round;stroke-miterlimit:4;stroke-dasharray:none;stroke-opacity:1" d="m304.336 177.102-93.62-11.999-39.727 85.618-36.419-87.076-94.01 8.404 57.2-75.078-54.283-77.213 93.62 11.998 39.726-85.618 36.42 87.077 94.01-8.405-57.201 75.078 54.284 77.214z" transform="rotate(-.96 4027.725 -8554.759) scale(.8899)"/><g style="display:inline"><path style="fill:url(#b);fill-opacity:1" d="M1.5 1.5v458.868c0 166.31 134.315 301.132 300 301.132s300-134.821 300-301.132V1.5H1.5z"/></g><g style="display:inline"><path style="fill:none;fill-opacity:1;stroke:#000;stroke-width:3;stroke-miterlimit:4;stroke-dasharray:none;stroke-opacity:1" d="M1.5 1.5v458.868c0 166.31 134.315 301.132 300 301.132s300-134.821 300-301.132V1.5H1.5z"/></g></svg>
